polaris-icons/icons/newicons/HintMajor.svg

<svg width="20" height="20" viewBox="0 0 20 20" fill="none" xmlns="http://www.w3.org/2000/svg">
<path d="M10.75 2.75C10.75 2.33579 10.4142 2 10 2C9.58579 2 9.25 2.33579 9.25 2.75V3.25C9.25 3.66421 9.58579 4 10 4C10.4142 4 10.75 3.66421 10.75 3.25V2.75Z" fill="black"/>
<path d="M4.51993 4.16656C4.81283 3.87367 5.2877 3.87367 5.58059 4.16656L5.93415 4.52011C6.22704 4.81301 6.22704 5.28788 5.93415 5.58077C5.64125 5.87367 5.16638 5.87367 4.87349 5.58077L4.51993 5.22722C4.22704 4.93433 4.22704 4.45945 4.51993 4.16656Z" fill="black"/>
<path fill-rule="evenodd" clip-rule="evenodd" d="M13.7457 12.6714C13.5757 12.889 13.3074 13 13.0312 13H6.96878C6.69256 13 6.42434 12.889 6.25432 12.6714C5.625 11.8656 5.25 10.8516 5.25 9.75C5.25 7.12665 7.37665 5 10 5C12.6234 5 14.75 7.12665 14.75 9.75C14.75 10.8516 14.375 11.8656 13.7457 12.6714ZM12.7393 11.5C13.0629 10.9951 13.25 10.396 13.25 9.75C13.25 7.95507 11.7949 6.5 10 6.5C8.20507 6.5 6.75 7.95507 6.75 9.75C6.75 10.396 6.9371 10.9951 7.26067 11.5H12.7393Z" fill="black"/>
<path d="M16 9.75C16 9.33579 16.3358 9 16.75 9H17.25C17.6642 9 18 9.33579 18 9.75C18 10.1642 17.6642 10.5 17.25 10.5H16.75C16.3358 10.5 16 10.1642 16 9.75Z" fill="black"/>
<path d="M2.75 9C2.33579 9 2 9.33579 2 9.75C2 10.1642 2.33579 10.5 2.75 10.5H3.25C3.66421 10.5 4 10.1642 4 9.75C4 9.33579 3.66421 9 3.25 9H2.75Z" fill="black"/>
<path d="M15.6569 4.34332C15.9497 4.63621 15.9497 5.11109 15.6569 5.40398L15.3033 5.75753C15.0104 6.05043 14.5355 6.05043 14.2426 5.75753C13.9497 5.46464 13.9497 4.98976 14.2426 4.69687L14.5962 4.34332C14.8891 4.05043 15.364 4.05043 15.6569 4.34332Z" fill="black"/>
<path d="M8.92083 14.4148C8.73559 14.0443 8.28509 13.8941 7.9146 14.0793C7.54412 14.2646 7.39395 14.7151 7.57919 15.0856L8.32919 16.5856C8.45624 16.8397 8.71593 17.0002 9.00001 17.0002H11C11.2841 17.0002 11.5438 16.8397 11.6708 16.5856L12.4208 15.0856C12.6061 14.7151 12.4559 14.2646 12.0854 14.0793C11.7149 13.8941 11.2644 14.0443 11.0792 14.4148L10.5365 15.5002H9.46354L8.92083 14.4148Z" fill="black"/>
</svg>

<svg viewBox="0 0 20 20" fill="none" xmlns="http://www.w3.org/2000/svg"><path d="M10.75 2.75a.75.75 0 0 0-1.5 0v.5a.75.75 0 0 0 1.5 0v-.5Z" fill="#000"/><path d="M4.52 4.167a.75.75 0 0 1 1.06 0l.354.353a.75.75 0 0 1-1.06 1.06l-.354-.353a.75.75 0 0 1 0-1.06Z" fill="#000"/><path fill-rule="evenodd" clip-rule="evenodd" d="M13.746 12.671a.897.897 0 0 1-.715.329h-6.062a.897.897 0 0 1-.715-.329 4.75 4.75 0 1 1 7.491 0Zm-1.007-1.171a3.25 3.25 0 1 0-5.479 0h5.48Z" fill="#000"/><path d="M16 9.75a.75.75 0 0 1 .75-.75h.5a.75.75 0 0 1 0 1.5h-.5a.75.75 0 0 1-.75-.75Z" fill="#000"/><path d="M2.75 9a.75.75 0 0 0 0 1.5h.5a.75.75 0 0 0 0-1.5h-.5Z" fill="#000"/><path d="M15.657 4.343a.75.75 0 0 1 0 1.061l-.354.354a.75.75 0 0 1-1.06-1.061l.353-.354a.75.75 0 0 1 1.06 0Z" fill="#000"/><path d="M8.92 14.415a.75.75 0 1 0-1.34.67l.75 1.5a.75.75 0 0 0 .67.415h2a.75.75 0 0 0 .67-.414l.75-1.5a.75.75 0 1 0-1.34-.671l-.543 1.085h-1.073l-.543-1.085Z" fill="#000"/></svg>
